!!!OTL: Der Kirchenr&auml;uber Peter Paulus (229a), S. 491
!!!id: T0412
**kern
*clefG2
*k[f#]
*G:
{8d
8d
8g
=1
4g
8g
8g
8a
8g
8f#
8e
=2
8e
8d}
2r
=3
{8d
8g
=4
4g
4g
8a
8g
8f#
8e
=5
8e
4d}
4r
=6
{8g
8f#
8g
=7
8a
8f#
4d
8r
8g
8g
8b
=8
4b
4a}
8r
=9
{8a
8a
8b
=10
8dd
4.cc
4b
8cc
8a
=11
4g}
4.r
==
*-
!!!minrhy: 8
!!!meters: 4/4 ]  ZZ[4
!!!cut: Der Kirchenr&auml;uber Peter Paulus (229a), S. 491
!!!reg: Luxemburg
!!!trd: Singendes Volk, Esch-Alzette, 1937 posth.
!!!rhy1: XXX  X_XXXXXX  XX0__
!!!rhy2: XX  X_X_XXXX  XX_0_
!!!key: T0412  08  G 4/4 ]  ZZ[4
!!!mod: HEPTATONIK IONISCH]  AMBITUS[8
!!!kad: -5-521
!!!akz: 12-6_12-6_23_531_
!!!fot: 'a__av_b__c__
!!!for: 'a__b__c__d__
!!!fok: '^__^__Va_^d_
!! PHRAS[AUFTAKTIG]
!!!fkt: Berufslied
!!!bem: Savelborn, fff Leny Goerens, 6.2.1916
!! THILL; Mathias
!! PR[37] 2K[8] 2G[16] 3K[5] 3G[3] 4A[0] 4Ü[0] 5A[0] 6K[0] 6G[0]
!! 7K[0] 7G[0] 8A[0] MEHR[0] SI[32] ABS[38] SR[24] SP[8]
!! ST[8] 2k[8] 2g[16] 3k[5] 3g[3] 4d[0] 4ü[0] 5d[0] 6k[0] 6g[0]
!! 7k[0] 7g[0] 8d[0] mehr[0] si[32] dm[0] sr[24] sp[8]
!! 1F[5] 2F[58] 3F[19] 4F[0] LF[0] 2P[0] 3P[0] 4P[0] TRI[0] DF[4] AB[43]
!! TF[0] U3K[0] U3[0] U4[0] U4Ü[0] U5[0] U6K[0] U6[0] U7K[0] U7[3]
!! N1[26] N2K[0] N2[31] N3K[0] N3[28] N4[10] N4Ü[0] N5[3] N6K[0] N6[0]
!!!n7k: 0] N7[0] O1[0] O2K[0] O2[0] O3K[0] O3[0] HÖ[0
!!!RNB: symbol: &auml;      = a umlaut  (UTF-8: Å„)
